source/images/icon-considerations.svg

<svg height="83" viewBox="0 0 132 83" width="132" xmlns="http://www.w3.org/2000/svg"><g fill="#0093c9" fill-rule="evenodd"><path d="m39 21.116577v-2.116577h-22.481533l-4.9695547 14.6973605h-3.5489123v16.3026395h31z"/><path d="m28.7697023 0v7.576088l-2.7697023 1.442934v9.980978h6v-19z"/><path d="m42 47h14v-14h-14zm2.4198981-2.4200542h9.1602038v-9.1598916h-9.1602038z"/><path d="m58 47h14v-14h-14zm2.4198981-2.4200542h9.1602038v-9.1598916h-9.1602038z"/><path d="m58 32h14v-14h-14zm2.4198981-2.4200542h9.1602038v-9.1598916h-9.1602038z"/><path d="m74 47h14v-14h-14zm2.4198981-2.4200542h9.1602038v-9.1598916h-9.1602038z"/><path d="m74 32h14v-14h-14zm2.4198981-2.4200542h9.1602038v-9.1598916h-9.1602038z"/><path d="m90 47h14v-14h-14zm2.4198981-2.4200542h9.1602039v-9.1598916h-9.1602039z"/><path d="m90 32h14v-14h-14zm2.4198981-2.4200542h9.1602039v-9.1598916h-9.1602039z"/><path d="m106 47h14v-14h-14zm2.419898-2.4200542h9.160204v-9.1598916h-9.160204z"/><path d="m42 32h14v-14h-14zm2.4198981-2.4200542h9.1602038v-9.1598916h-9.1602038z"/><path d="m74 16h14v-14h-14zm2.4198981-2.4198981h9.1602038v-9.16020384h-9.1602038z"/><path d="m58 16h14v-14h-14zm2.4198981-2.4198981h9.1602038v-9.16020384h-9.1602038z"/><g transform="translate(0 49)"><path d="m26.9732189 5.38291579c2.2431081 0 4.0616757 1.82436842 4.0616757 4.07463158 0 2.24936843-1.8185676 4.07373683-4.0616757 4.07373683s-4.0616757-1.8243684-4.0616757-4.07373683c0-2.25026316 1.8185676-4.07463158 4.0616757-4.07463158zm12.2956216 0c2.2431081 0 4.0607838 1.82436842 4.0607838 4.07463158 0 2.24936843-1.8176757 4.07373683-4.0607838 4.07373683s-4.0616756-1.8243684-4.0616756-4.07373683c0-2.25026316 1.8185675-4.07463158 4.0616756-4.07463158zm12.2956217 0c2.2422162 0 4.0607837 1.82436842 4.0607837 4.07463158 0 2.24936843-1.8185675 4.07373683-4.0607837 4.07373683-2.2431081 0-4.0616757-1.8243684-4.0616757-4.07373683 0-2.25026316 1.8185676-4.07463158 4.0616757-4.07463158zm68.7773518 15.92989471c3.696891-12.12368418 11.191459-21.1560526 11.191459-21.1560526h-131.53354057c0 7.45047368.77416217 15.0485789 2.09505406 21.1560526z"/><path d="m2.73703784 23.9966632c1.58489189 5.9956315 3.75486486 10.0031579 6.24324324 10.0031579h109.34683792c0-3.4420527.489649-6.8080527 1.275405-10.0031579z"/></g></g></svg>

<?xml version="1.0" encoding="UTF-8"?>
<svg width="132px" height="83px" viewBox="0 0 132 83" version="1.1" xmlns="http://www.w3.org/2000/svg" xmlns:xlink="http://www.w3.org/1999/xlink">
    <!-- Generator: Sketch 41.2 (35397) - https://www.sketchapp.com -->
    <title>icon-platform</title>
    <desc>Created with Sketch.</desc>
    <defs></defs>
    <g id="Updated-HOME-+-icons" stroke="none" stroke-width="1" fill="none" fill-rule="evenodd">
        <g id="Artboard" transform="translate(-111.000000, -1374.000000)" fill="#0093C9">
            <g id="icon-platform" transform="translate(111.000000, 1374.000000)">
                <polygon id="Fill-1" points="39 21.116577 39 19 16.518467 19 11.5489123 33.6973605 8 33.6973605 8 50 39 50"></polygon>
                <polygon id="Fill-2" points="28.7697023 0 28.7697023 7.576088 26 9.019022 26 19 32 19 32 0"></polygon>
                <path d="M42,47 L56,47 L56,33 L42,33 L42,47 Z M44.4198981,44.5799458 L53.5801019,44.5799458 L53.5801019,35.4200542 L44.4198981,35.4200542 L44.4198981,44.5799458 Z" id="Fill-3"></path>
                <path d="M58,47 L72,47 L72,33 L58,33 L58,47 Z M60.4198981,44.5799458 L69.5801019,44.5799458 L69.5801019,35.4200542 L60.4198981,35.4200542 L60.4198981,44.5799458 Z" id="Fill-4"></path>
                <path d="M58,32 L72,32 L72,18 L58,18 L58,32 Z M60.4198981,29.5799458 L69.5801019,29.5799458 L69.5801019,20.4200542 L60.4198981,20.4200542 L60.4198981,29.5799458 Z" id="Fill-5"></path>
                <path d="M74,47 L88,47 L88,33 L74,33 L74,47 Z M76.4198981,44.5799458 L85.5801019,44.5799458 L85.5801019,35.4200542 L76.4198981,35.4200542 L76.4198981,44.5799458 Z" id="Fill-6"></path>
                <path d="M74,32 L88,32 L88,18 L74,18 L74,32 Z M76.4198981,29.5799458 L85.5801019,29.5799458 L85.5801019,20.4200542 L76.4198981,20.4200542 L76.4198981,29.5799458 Z" id="Fill-7"></path>
                <path d="M90,47 L104,47 L104,33 L90,33 L90,47 Z M92.4198981,44.5799458 L101.580102,44.5799458 L101.580102,35.4200542 L92.4198981,35.4200542 L92.4198981,44.5799458 Z" id="Fill-8"></path>
                <path d="M90,32 L104,32 L104,18 L90,18 L90,32 Z M92.4198981,29.5799458 L101.580102,29.5799458 L101.580102,20.4200542 L92.4198981,20.4200542 L92.4198981,29.5799458 Z" id="Fill-9"></path>
                <path d="M106,47 L120,47 L120,33 L106,33 L106,47 Z M108.419898,44.5799458 L117.580102,44.5799458 L117.580102,35.4200542 L108.419898,35.4200542 L108.419898,44.5799458 Z" id="Fill-10"></path>
                <path d="M42,32 L56,32 L56,18 L42,18 L42,32 Z M44.4198981,29.5799458 L53.5801019,29.5799458 L53.5801019,20.4200542 L44.4198981,20.4200542 L44.4198981,29.5799458 Z" id="Fill-11"></path>
                <path d="M74,16 L88,16 L88,2 L74,2 L74,16 Z M76.4198981,13.5801019 L85.5801019,13.5801019 L85.5801019,4.41989806 L76.4198981,4.41989806 L76.4198981,13.5801019 Z" id="Fill-12"></path>
                <path d="M58,16 L72,16 L72,2 L58,2 L58,16 Z M60.4198981,13.5801019 L69.5801019,13.5801019 L69.5801019,4.41989806 L60.4198981,4.41989806 L60.4198981,13.5801019 Z" id="Fill-13"></path>
                <g id="Group-19" transform="translate(0.000000, 49.000000)">
                    <g id="Group-16">
                        <path d="M26.9732189,5.38291579 C29.216327,5.38291579 31.0348946,7.20728421 31.0348946,9.45754737 C31.0348946,11.7069158 29.216327,13.5312842 26.9732189,13.5312842 C24.7301108,13.5312842 22.9115432,11.7069158 22.9115432,9.45754737 C22.9115432,7.20728421 24.7301108,5.38291579 26.9732189,5.38291579 L26.9732189,5.38291579 Z M39.2688405,5.38291579 C41.5119486,5.38291579 43.3296243,7.20728421 43.3296243,9.45754737 C43.3296243,11.7069158 41.5119486,13.5312842 39.2688405,13.5312842 C37.0257324,13.5312842 35.2071649,11.7069158 35.2071649,9.45754737 C35.2071649,7.20728421 37.0257324,5.38291579 39.2688405,5.38291579 L39.2688405,5.38291579 Z M51.5644622,5.38291579 C53.8066784,5.38291579 55.6252459,7.20728421 55.6252459,9.45754737 C55.6252459,11.7069158 53.8066784,13.5312842 51.5644622,13.5312842 C49.3213541,13.5312842 47.5027865,11.7069158 47.5027865,9.45754737 C47.5027865,7.20728421 49.3213541,5.38291579 51.5644622,5.38291579 L51.5644622,5.38291579 Z M120.341814,21.3128105 C124.038705,9.18912632 131.533273,0.156757895 131.533273,0.156757895 L-0.000267567568,0.156757895 C-0.000267567568,7.60723158 0.773894595,15.2053368 2.09478649,21.3128105 L120.341814,21.3128105 Z" id="Fill-14"></path>
                    </g>
                    <path d="M2.73703784,23.9966632 C4.32192973,29.9922947 6.4919027,33.9998211 8.98028108,33.9998211 L118.327119,33.9998211 C118.327119,30.5577684 118.816768,27.1917684 119.602524,23.9966632 L2.73703784,23.9966632 Z" id="Fill-17"></path>
                </g>
            </g>
        </g>
    </g>
</svg>
